svg/regular/bx-right-indent.svg

<svg xmlns="http://www.w3.org/2000/svg" width="24" height="24"><path d="M10 15h10v2H10zm-6 4h16v2H4zm6-8h10v2H10zm0-4h10v2H10zM4 3h16v2H4zm0 5v8l4-4z"/></svg>

<svg xmlns="http://www.w3.org/2000/svg" width="24" height="24" viewBox="0 0 24 24"><path d="M10 15H20V17H10zM4 19H20V21H4zM10 11H20V13H10zM10 7H20V9H10zM4 3H20V5H4zM4 8L4 16 8 12z"/></svg>
